packages/brickdoc-design-icons/assets/edit/rte-h5.svg

<svg width="1em" height="1em" viewBox="0 0 24 24" fill="none" xmlns="http://www.w3.org/2000/svg">
<path d="M1 2V22H3.57771V13.0364H12.4223V22H15V2H12.4223V10.4314H3.57771V2H1Z" fill="3E3E3E"/>
<path fill-rule="evenodd" clip-rule="evenodd" d="M23.628 11.754H17.0611L16.4666 17.882H18.4145L18.4861 17.7541C18.6578 17.4476 18.8861 17.2324 19.1882 17.0874L19.1918 17.0856C19.4544 16.9543 19.7907 16.888 20.2 16.888C20.7977 16.888 21.2206 17.0556 21.4942 17.3747L21.4971 17.3781C21.7827 17.6994 21.952 18.1668 21.952 18.794C21.952 19.3465 21.7667 19.7673 21.4315 20.0793C21.0759 20.3974 20.6337 20.56 20.102 20.56C19.5923 20.56 19.2149 20.4423 18.9614 20.2581C18.6665 20.0425 18.4816 19.7069 18.418 19.2102L18.39 18.992H16.2903L16.3107 19.2609C16.3859 20.2528 16.8113 21.0622 17.5993 21.6535C18.2913 22.1798 19.1298 22.446 20.088 22.446C21.1358 22.446 22.0461 22.1345 22.8211 21.5085L22.8247 21.5055C23.6657 20.7997 24.09 19.8894 24.09 18.78C24.09 17.6531 23.7669 16.732 23.1248 16.0594C22.4842 15.3883 21.646 15.058 20.648 15.058C20.1755 15.058 19.7398 15.1316 19.3444 15.2831C19.0866 15.3724 18.8497 15.4928 18.6311 15.6436L18.8298 13.696H23.628V11.754Z" fill="3E3E3E"/>
</svg>

<svg  viewBox="0 0 24 24" width="1em" height="1em" fill="none" xmlns="http://www.w3.org/2000/svg"><path d="M1 2v20h2.578v-8.964h8.844V22H15V2h-2.578v8.431H3.578V2H1Z" fill="3E3E3E"/><path fill-rule="evenodd" clip-rule="evenodd" d="M23.628 11.754h-6.567l-.594 6.128h1.948l.071-.128c.172-.306.4-.522.702-.667l.004-.001c.262-.132.599-.198 1.008-.198.598 0 1.02.168 1.294.487l.003.003c.286.321.455.789.455 1.416 0 .552-.185.973-.52 1.285-.356.318-.798.481-1.33.481-.51 0-.887-.118-1.14-.302-.296-.215-.48-.551-.544-1.048l-.028-.218h-2.1l.02.269c.076.992.501 1.801 1.29 2.393.691.526 1.53.792 2.488.792 1.048 0 1.958-.312 2.733-.938l.004-.002c.84-.706 1.265-1.617 1.265-2.726 0-1.127-.323-2.048-.965-2.72-.64-.672-1.479-1.002-2.477-1.002a3.62 3.62 0 0 0-1.304.225c-.257.09-.494.21-.713.36l.199-1.947h4.798v-1.942Z" fill="3E3E3E"/></svg>
